svg/format_font_size_increase.svg

<svg xmlns="http://www.w3.org/2000/svg" viewBox="0 0 24 24"><path d="M5.12 14 7.5 7.67 9.87 14M6.5 5 1 19h2.25l1.12-3h6.25l1.13 3H14L8.5 5zM18 7l-5 5.07 1.41 1.43L17 10.9V17h2v-6.1l2.59 2.6L23 12.07z"/></svg>

<?xml version="1.0" encoding="UTF-8"?><!DOCTYPE svg PUBLIC "-//W3C//DTD SVG 1.1//EN" "http://www.w3.org/Graphics/SVG/1.1/DTD/svg11.dtd"><svg xmlns="http://www.w3.org/2000/svg" xmlns:xlink="http://www.w3.org/1999/xlink" version="1.1" id="mdi-format-font-size-increase" width="24" height="24" viewBox="0 0 24 24"><path d="M5.12,14L7.5,7.67L9.87,14M6.5,5L1,19H3.25L4.37,16H10.62L11.75,19H14L8.5,5H6.5M18,7L13,12.07L14.41,13.5L17,10.9V17H19V10.9L21.59,13.5L23,12.07L18,7Z" /></svg>
